X:673
T:Down the Broom
R:reel
D:Fintan Vallely: Traditional Irish Flute Music
Z:id:hn-reel-673
M:C|
L:1/8
K:Ador
EA~A2 A2Bd | eg~g2 egdc | BGGF ~G3E | DGBG AGED | 
EAAG A2Bd | eg~g2 egdg | eg~g2 dgba |1  gedB BAAG :|2  gedB BA~A2 || 
|: a2ea ageg | a2bg agef | g2dg egde | g2bg ageg | 
a2ea ageg | a2bg ageg | dg~g2 dgba |1  gedB BA~A2 :|2  gedB BAAG || 
P:variations
|: EAAG A2Bd | eggd egdc | BGGF ~G3E | EDB,D GABG | 
EAAG ABcd | eg~g2 egdB | eg~g2 dgba |1  gedB BAAG :|2  gedB BA~A2 || 
|: a2ea ageg | agbg agef | g2dg egde | geaf gedg | 
a2ea ageg | agbg ageg | dggf gaba |1  gedB BA~A2 :|2  gedB BAAG || 

